Numix-Square/48x48/apps/steam_icon_70300.svg

<svg xmlns="http://www.w3.org/2000/svg" xmlns:xlink="http://www.w3.org/1999/xlink" width="48" viewBox="0 0 13.546667 13.546667" height="48">
 <defs>
  <linearGradient y2="31.619" x2="0" y1="299.81" gradientTransform="matrix(0.11931818,0,0,0.11931818,414.13636,48.22727)" gradientUnits="userSpaceOnUse" id="0" xlink:href="#9"/>
  <clipPath>
   <rect y="53" x="417" height="30" width="30" fill="url(#0)" color="#bebebe" rx="7"/>
  </clipPath>
  <linearGradient y2="28.571" x2="0" y1="302.86" gradientTransform="matrix(0.0875,0,0,0.0875,414.9,97.5)" gradientUnits="userSpaceOnUse" id="1" xlink:href="#9"/>
  <clipPath>
   <rect width="22" height="22" x="417" y="101" fill="url(#1)" color="#bebebe" rx="5"/>
  </clipPath>
  <linearGradient y2="28" x2="0" y1="124" gradientUnits="userSpaceOnUse" id="2" xlink:href="#9"/>
  <clipPath>
   <rect y="32" x="292" height="88" width="88" fill="url(#2)" color="#bebebe" rx="18"/>
  </clipPath>
  <linearGradient y2="140" x2="0" y1="204" gradientUnits="userSpaceOnUse" id="3" xlink:href="#9"/>
  <clipPath>
   <rect width="60" height="60" x="290" y="142" fill="url(#3)" color="#bebebe" rx="12.5"/>
  </clipPath>
  <linearGradient y2="40" x2="0" y1="280" gradientTransform="translate(0,-4)" gradientUnits="userSpaceOnUse" id="4" xlink:href="#9"/>
  <clipPath>
   <rect width="220" height="220" x="34" y="46" fill="url(#4)" color="#bebebe" rx="50"/>
  </clipPath>
  <linearGradient y2="40" x2="0" y1="280" gradientTransform="matrix(0.06666667,0,0,0.06666667,302.4,209.33333)" gradientUnits="userSpaceOnUse" id="5" xlink:href="#9"/>
  <clipPath>
   <rect transform="matrix(0,1,-1,0,0,0)" y="212" x="304" height="16" width="16" fill="url(#5)" color="#bebebe" rx="3"/>
  </clipPath>
  <linearGradient y2="40" x2="0" y1="291.43" gradientTransform="matrix(0.11931818,0,0,0.11931818,430.13636,32.227267)" gradientUnits="userSpaceOnUse" id="6" xlink:href="#9"/>
  <clipPath>
   <rect y="37" x="433" height="30" width="30" fill="url(#6)" color="#bebebe" rx="6"/>
  </clipPath>
  <linearGradient y2="40" x2="0" y1="291.43" gradientTransform="matrix(0.0875,0,0,0.0875,430.9,81.499996)" gradientUnits="userSpaceOnUse" id="7" xlink:href="#9"/>
  <clipPath>
   <rect width="22" height="22" x="433" y="85" fill="url(#7)" color="#bebebe" rx="4"/>
  </clipPath>
  <linearGradient y2="40" x2="0" y1="280" gradientTransform="matrix(0.175,0,0,0.175,302.79999,215.99997)" gradientUnits="userSpaceOnUse" id="8" xlink:href="#9"/>
  <clipPath>
   <rect transform="matrix(0,1,-1,0,0,0)" width="42" height="42" x="307" y="223" fill="url(#8)" color="#bebebe" rx="9"/>
  </clipPath>
  <linearGradient id="9">
   <stop stop-color="#040e18"/>
   <stop offset="1" stop-color="#1e3a50"/>
  </linearGradient>
  <linearGradient gradientTransform="matrix(0.28222223,0,0,0.28222223,0,-283.45334)" xlink:href="#9" id="A" y1="1050.36" x2="0" y2="1006.36" gradientUnits="userSpaceOnUse"/>
 </defs>
 <g transform="matrix(0.28222223,0,0,0.28222223,0,-283.45334)">
  <path transform="translate(0,1004.3622)" d="M 5.1875,1 C 2.8707723,1 1,2.8707723 1,5.1875 l 0,37.625 C 1,45.129228 2.8707723,47 5.1875,47 l 37.625,0 C 45.129228,47 47,45.129228 47,42.8125 L 47,5.1875 C 47,2.8707723 45.129228,1 42.8125,1 L 5.1875,1 z m 0.1875,0.25 37.25,0 c 2.291546,0 4.125,1.8334541 4.125,4.125 l 0,37.25 c 0,2.291546 -1.833454,4.125 -4.125,4.125 l -37.25,0 C 3.0834541,46.75 1.25,44.916546 1.25,42.625 l 0,-37.25 C 1.25,3.0834541 3.0834541,1.25 5.375,1.25 z" opacity="0.05"/>
  <path transform="translate(0,1004.3622)" d="M 5.375,1.25 C 3.0834541,1.25 1.25,3.0834541 1.25,5.375 l 0,37.25 c 0,2.291546 1.8334541,4.125 4.125,4.125 l 37.25,0 c 2.291546,0 4.125,-1.833454 4.125,-4.125 l 0,-37.25 C 46.75,3.0834541 44.916546,1.25 42.625,1.25 l -37.25,0 z m 0.21875,0.25 36.8125,0 C 44.672614,1.5 46.5,3.3273859 46.5,5.59375 l 0,36.8125 C 46.5,44.672614 44.672614,46.5 42.40625,46.5 l -36.8125,0 C 3.3273859,46.5 1.5,44.672614 1.5,42.40625 l 0,-36.8125 C 1.5,3.3273859 3.3273859,1.5 5.59375,1.5 z" opacity="0.1"/>
  <path transform="translate(0,1004.3622)" d="M 5.59375,1.5 C 3.3273859,1.5 1.5,3.3273859 1.5,5.59375 l 0,36.8125 C 1.5,44.672614 3.3273859,46.5 5.59375,46.5 l 36.8125,0 C 44.672614,46.5 46.5,44.672614 46.5,42.40625 l 0,-36.8125 C 46.5,3.3273859 44.672614,1.5 42.40625,1.5 l -36.8125,0 z m 0.09375,0.125 36.625,0 c 2.253773,0 4.0625,1.8087269 4.0625,4.0625 l 0,36.625 c 0,2.253773 -1.808727,4.0625 -4.0625,4.0625 l -36.625,0 c -2.2537731,0 -4.0625,-1.808727 -4.0625,-4.0625 l 0,-36.625 C 1.625,3.4337269 3.4337269,1.625 5.6875,1.625 z" opacity="0.2"/>
  <path transform="translate(0,1004.3622)" d="M 5.6875,1.625 C 3.4337269,1.625 1.625,3.4337269 1.625,5.6875 l 0,36.625 c 0,2.253773 1.8087269,4.0625 4.0625,4.0625 l 36.625,0 c 2.253773,0 4.0625,-1.808727 4.0625,-4.0625 l 0,-36.625 c 0,-2.2537731 -1.808727,-4.0625 -4.0625,-4.0625 l -36.625,0 z m 0.09375,0.125 36.4375,0 c 2.241182,0 4.03125,1.7900679 4.03125,4.03125 l 0,36.4375 c 0,2.241182 -1.790068,4.03125 -4.03125,4.03125 l -36.4375,0 C 3.5400679,46.25 1.75,44.459932 1.75,42.21875 l 0,-36.4375 C 1.75,3.5400679 3.5400679,1.75 5.78125,1.75 z" opacity="0.3"/>
  <path transform="translate(0,1004.3622)" d="M 5.78125,1.75 C 3.5400679,1.75 1.75,3.5400679 1.75,5.78125 l 0,36.4375 c 0,2.241182 1.7900679,4.03125 4.03125,4.03125 l 36.4375,0 c 2.241182,0 4.03125,-1.790068 4.03125,-4.03125 l 0,-36.4375 C 46.25,3.5400679 44.459932,1.75 42.21875,1.75 l -36.4375,0 z m 0.125,0.125 36.1875,0 c 2.228591,0 4.03125,1.802659 4.03125,4.03125 l 0,36.1875 c 0,2.228591 -1.802659,4.03125 -4.03125,4.03125 l -36.1875,0 C 3.677659,46.125 1.875,44.322341 1.875,42.09375 l 0,-36.1875 C 1.875,3.677659 3.677659,1.875 5.90625,1.875 z" opacity="0.4"/>
  <rect width="44.25" height="44.25" x="1.875" y="1006.24" rx="4.02" opacity="0.5"/>
 </g>
 <rect width="12.418" height="12.418" x="0.564" y="0.564" rx="1.129" fill="url(#A)"/>
 <path d="M 20 14 L 20 17 L 21 17 L 21 19 L 22 19 L 22 21 L 21 21 L 21 19 L 19 19 L 19 24 L 20 24 L 20 25 L 22 25 L 22 26 L 20 26 L 20 27 L 19 27 L 19 33 L 20 33 L 20 34 L 28 34 L 28 33 L 29 33 L 29 27 L 28 27 L 28 26 L 26 26 L 26 25 L 28 25 L 28 24 L 29 24 L 28.84375 19 L 27 19 L 27 21 L 26 21 L 26 19 L 27 19 L 27 17 L 28 17 L 28 14 L 25 14 L 25 18 L 23 18 L 23 14 L 20 14 z M 23 27 L 27 27 L 27 28 L 28 28 L 28 29 L 22 29 L 22 28 L 23 28 L 23 27 z M 22 30 L 24 30 L 24 32 L 22 32 L 22 30 z M 26 30 L 28 30 L 28 32 L 26 32 L 26 30 z " transform="scale(0.28222223,0.28222223)" fill="#99ccff"/>
</svg>

<svg viewBox="0 0 48 48"><defs><linearGradient id="linearGradient3764" x1="1" x2="47" gradientUnits="userSpaceOnUse" gradientTransform="translate(-47.997785,0.00221467)"><stop stop-color="#162b3c" stop-opacity="1"/><stop offset="1" stop-color="#1b354a" stop-opacity="1"/></linearGradient><clipPath id="clipPath-481268518"><g transform="translate(0,-1004.3622)"><rect rx="4" y="1005.36" x="1" height="46" width="46" fill="#1890d0"/></g></clipPath><clipPath id="clipPath-493235667"><g transform="translate(0,-1004.3622)"><rect rx="4" y="1005.36" x="1" height="46" width="46" fill="#1890d0"/></g></clipPath></defs><g><g transform="translate(0,-1004.3622)"><path d="m 5 1006.36 c -2.216 0 -4 1.784 -4 4 l 0 37.25 c 0 2.216 1.784 4 4 4 l 38 0 c 2.216 0 4 -1.784 4 -4 l 0 -37.25 c 0 -2.216 -1.784 -4 -4 -4 l -38 0 z m -4 41.5 0 0.5 c 0 2.216 1.784 4 4 4 l 38 0 c 2.216 0 4 -1.784 4 -4 l 0 -0.5 c 0 2.216 -1.784 4 -4 4 l -38 0 c -2.216 0 -4 -1.784 -4 -4 z" opacity="0.02"/><path d="m 1 1047.61 0 0.25 c 0 2.216 1.784 4 4 4 l 38 0 c 2.216 0 4 -1.784 4 -4 l 0 -0.25 c 0 2.216 -1.784 4 -4 4 l -38 0 c -2.216 0 -4 -1.784 -4 -4 z" opacity="0.05"/><rect width="46" height="46" x="1" y="1005.61" rx="4" opacity="0.1"/></g></g><g><rect width="46" height="46" x="-46.998" y="1" rx="4" transform="matrix(0,-1,1,0,0,0)" fill="url(#linearGradient3764)" fill-opacity="1"/></g><g/><g><g clip-path="url(#clipPath-481268518)"><g opacity="0.1"><!-- color: #1b354a --><g><path d="m 20 14 l 0 3 l 1 0 l 0 2 l 1 0 l 0 2 l -1 0 l 0 -2 l -2 0 l 0 5 l 1 0 l 0 1 l 2 0 l 0 1 l -2 0 l 0 1 l -1 0 l 0 6 l 1 0 l 0 1 l 8 0 l 0 -1 l 1 0 l 0 -6 l -1 0 l 0 -1 l -2 0 l 0 -1 l 2 0 l 0 -1 l 1 0 l -0.156 -5 l -1.844 0 l 0 2 l -1 0 l 0 -2 l 1 0 l 0 -2 l 1 0 l 0 -3 l -3 0 l 0 4 l -2 0 l 0 -4 m 0 13 l 4 0 l 0 1 l 1 0 l 0 1 l -6 0 l 0 -1 l 1 0 m -1 2 l 2 0 l 0 2 l -2 0 m 4 -2 l 2 0 l 0 2 l -2 0 m 0 -2" stroke="none" fill-rule="nonzero" fill-opacity="1" fill="#000"/></g></g></g></g><g><g clip-path="url(#clipPath-493235667)"><g transform="translate(0,-1)"><!-- color: #1b354a --><g><path d="m 20 14 l 0 3 l 1 0 l 0 2 l 1 0 l 0 2 l -1 0 l 0 -2 l -2 0 l 0 5 l 1 0 l 0 1 l 2 0 l 0 1 l -2 0 l 0 1 l -1 0 l 0 6 l 1 0 l 0 1 l 8 0 l 0 -1 l 1 0 l 0 -6 l -1 0 l 0 -1 l -2 0 l 0 -1 l 2 0 l 0 -1 l 1 0 l -0.156 -5 l -1.844 0 l 0 2 l -1 0 l 0 -2 l 1 0 l 0 -2 l 1 0 l 0 -3 l -3 0 l 0 4 l -2 0 l 0 -4 m 0 13 l 4 0 l 0 1 l 1 0 l 0 1 l -6 0 l 0 -1 l 1 0 m -1 2 l 2 0 l 0 2 l -2 0 m 4 -2 l 2 0 l 0 2 l -2 0 m 0 -2" fill="#9cf" stroke="none" fill-rule="nonzero" fill-opacity="1"/></g></g></g></g><g><g transform="translate(0,-1004.3622)"><path d="m 1 1043.36 0 4 c 0 2.216 1.784 4 4 4 l 38 0 c 2.216 0 4 -1.784 4 -4 l 0 -4 c 0 2.216 -1.784 4 -4 4 l -38 0 c -2.216 0 -4 -1.784 -4 -4 z" opacity="0.1"/></g></g></svg>
